app/img/s3.svg

<?xml version="1.0" encoding="UTF-8"?>
<svg width="37px" height="37px" viewBox="0 0 37 37" version="1.1" xmlns="http://www.w3.org/2000/svg" xmlns:xlink="http://www.w3.org/1999/xlink">
    <!-- Generator: Sketch 52.2 (67145) - http://www.bohemiancoding.com/sketch -->
    <title>Consalty</title>
    <desc>Created with Sketch.</desc>
    <g id="Overview" stroke="none" stroke-width="1" fill="none" fill-rule="evenodd">
        <g id="LD_Main_6" transform="translate(-436.000000, -880.000000)">
            <g id="Consalty" transform="translate(436.000000, 880.000000)">
                <g id="Group" transform="translate(5.000000, 26.000000)" fill="#F01429">
                    <path d="M10.38,8.26 L8.57,8.26 C4.33073717,8.25449088 0.89550912,4.81926283 0.89,0.58 L2.89,0.58 C2.89550431,3.71469459 5.43530541,6.25449569 8.57,6.26 L10.38,6.26 L10.38,8.26 Z" id="Path"></path>
                    <path d="M16.57,11 L12.11,11 C10.2488004,11 8.74,9.49119961 8.74,7.63 L8.74,6.88 C8.74,5.01880039 10.2488004,3.51 12.11,3.51 L16.57,3.51 C18.4311996,3.51 19.94,5.01880039 19.94,6.88 L19.94,7.63 C19.94,9.49119961 18.4311996,11 16.57,11 Z M12.11,5.51 C11.3533699,5.51 10.74,6.12336989 10.74,6.88 L10.74,7.63 C10.74,8.38663011 11.3533699,9 12.11,9 L16.57,9 C16.9333466,9 17.2818115,8.85566113 17.5387363,8.59873629 C17.7956611,8.34181145 17.94,7.99334659 17.94,7.63 L17.94,6.88 C17.94,6.12336989 17.3266301,5.51 16.57,5.51 L12.11,5.51 Z" id="Shape" fill-rule="nonzero"></path>
                </g>
                <path d="M11.26,27.62 L6.33,27.62 C2.83403753,27.62 4.28131924e-16,24.7859625 0,21.29 L0,19.61 C0.00550620281,16.1163208 2.83632082,13.2855062 6.33,13.28 L11.26,13.28 L11.26,27.62 Z M6.33,15.28 C3.93860703,15.28 2,17.218607 2,19.61 L2,21.29 C2,23.681393 3.93860703,25.62 6.33,25.62 L9.26,25.62 L9.26,15.28 L6.33,15.28 Z" id="Shape" fill="#68757C" fill-rule="nonzero"></path>
                <path d="M32.6,13.75 L30.6,13.75 C30.4145192,7.39136182 25.2063428,2.33289211 18.845,2.33289211 C12.4836572,2.33289211 7.27548081,7.39136182 7.09,13.75 L5.09,13.75 C5.29095432,6.29773697 11.390028,0.360911041 18.845,0.360911041 C26.299972,0.360911041 32.3990457,6.29773697 32.6,13.75 Z" id="Path" fill="#68757C"></path>
                <path d="M30.67,27.62 L25.74,27.62 L25.74,13.28 L30.67,13.28 C34.1636792,13.2855062 36.9944938,16.1163208 37,19.61 L37,21.29 C37,24.7859625 34.1659625,27.62 30.67,27.62 Z M27.74,25.62 L30.67,25.62 C33.061393,25.62 35,23.681393 35,21.29 L35,19.61 C35,17.218607 33.061393,15.28 30.67,15.28 L27.74,15.28 L27.74,25.62 Z" id="Shape" fill="#68757C" fill-rule="nonzero"></path>
            </g>
        </g>
    </g>
</svg>

<svg xmlns="http://www.w3.org/2000/svg" width="37" height="37" viewBox="0 0 37 37">
    <g fill="none" fill-rule="evenodd">
        <g fill="#F01429">
            <path d="M15.38 34.26h-1.81a7.69 7.69 0 0 1-7.68-7.68h2a5.69 5.69 0 0 0 5.68 5.68h1.81v2z"/>
            <path fill-rule="nonzero" d="M21.57 37h-4.46a3.37 3.37 0 0 1-3.37-3.37v-.75a3.37 3.37 0 0 1 3.37-3.37h4.46a3.37 3.37 0 0 1 3.37 3.37v.75A3.37 3.37 0 0 1 21.57 37zm-4.46-5.49a1.37 1.37 0 0 0-1.37 1.37v.75c0 .757.613 1.37 1.37 1.37h4.46a1.37 1.37 0 0 0 1.37-1.37v-.75a1.37 1.37 0 0 0-1.37-1.37h-4.46z"/>
        </g>
        <path fill="#68757C" fill-rule="nonzero" d="M11.26 27.62H6.33A6.33 6.33 0 0 1 0 21.29v-1.68a6.34 6.34 0 0 1 6.33-6.33h4.93v14.34zM6.33 15.28A4.33 4.33 0 0 0 2 19.61v1.68a4.33 4.33 0 0 0 4.33 4.33h2.93V15.28H6.33z"/>
        <path fill="#68757C" d="M32.6 13.75h-2c-.185-6.359-5.394-11.417-11.755-11.417-6.361 0-11.57 5.058-11.755 11.417h-2C5.291 6.298 11.39.36 18.845.36 26.3.36 32.399 6.299 32.6 13.75z"/>
        <path fill="#68757C" fill-rule="nonzero" d="M30.67 27.62h-4.93V13.28h4.93A6.34 6.34 0 0 1 37 19.61v1.68a6.33 6.33 0 0 1-6.33 6.33zm-2.93-2h2.93A4.33 4.33 0 0 0 35 21.29v-1.68a4.33 4.33 0 0 0-4.33-4.33h-2.93v10.34z"/>
    </g>
</svg>
